storage/app/icons/phosphoricons/fill/windows-logo-fill.svg

<svg xmlns="http://www.w3.org/2000/svg" fill="currentColor" viewBox="0 0 256 256"><path d="M104 144v51.64a8 8 0 0 1-8 8 8.5 8.5 0 0 1-1.43-.13l-64-11.64A8 8 0 0 1 24 184v-40a8 8 0 0 1 8-8h64a8 8 0 0 1 8 8m-2.87-89.78a8 8 0 0 0-6.56-1.73l-64 11.64A8 8 0 0 0 24 72v40a8 8 0 0 0 8 8h64a8 8 0 0 0 8-8V60.36a8 8 0 0 0-2.87-6.14M208 136h-80a8 8 0 0 0-8 8v57.45a8 8 0 0 0 6.57 7.88l80 14.54a7.6 7.6 0 0 0 1.43.13 8 8 0 0 0 8-8v-72a8 8 0 0 0-8-8m5.13-102.14a8 8 0 0 0-6.56-1.73l-80 14.55a8 8 0 0 0-6.57 7.87V112a8 8 0 0 0 8 8h80a8 8 0 0 0 8-8V40a8 8 0 0 0-2.87-6.14"/></svg>

<svg xmlns="http://www.w3.org/2000/svg" viewBox="0 0 256 256" fill="currentColor"><path d="M104,144v51.64a8,8,0,0,1-8,8,8.54,8.54,0,0,1-1.43-.13l-64-11.64A8,8,0,0,1,24,184V144a8,8,0,0,1,8-8H96A8,8,0,0,1,104,144Zm-2.87-89.78a8,8,0,0,0-6.56-1.73l-64,11.64A8,8,0,0,0,24,72v40a8,8,0,0,0,8,8H96a8,8,0,0,0,8-8V60.36A8,8,0,0,0,101.13,54.22ZM208,136H128a8,8,0,0,0-8,8v57.45a8,8,0,0,0,6.57,7.88l80,14.54A7.61,7.61,0,0,0,208,224a8,8,0,0,0,8-8V144A8,8,0,0,0,208,136Zm5.13-102.14a8,8,0,0,0-6.56-1.73l-80,14.55A8,8,0,0,0,120,54.55V112a8,8,0,0,0,8,8h80a8,8,0,0,0,8-8V40A8,8,0,0,0,213.13,33.86Z"/></svg>
